packages/sources/icons/src/vitamix/edit-line.svg

<svg width="16" height="16" viewBox="0 0 16 16" fill="none" xmlns="http://www.w3.org/2000/svg">
<path fill-rule="evenodd" clip-rule="evenodd" d="M4.82867 12H2V9.17134L9.62333 1.54801C9.88367 1.28776 10.3057 1.28776 10.566 1.54801L12.452 3.43401C12.7123 3.69435 12.7123 4.11635 12.452 4.37668L4.82867 12ZM4.276 10.6667L11.0373 3.90534L10.0947 2.96268L3.33333 9.72401V10.6667H4.276ZM14 13.3333H2V14.6667H14V13.3333Z" fill="#001018"/>
</svg>

<svg width="16" height="16" fill="none" xmlns="http://www.w3.org/2000/svg"><path fill-rule="evenodd" clip-rule="evenodd" d="M4.829 12H2V9.171l7.623-7.623c.26-.26.683-.26.943 0l1.886 1.886c.26.26.26.682 0 .943L4.829 12zm-.553-1.333 6.761-6.762-.942-.942-6.762 6.761v.943h.943zM14 13.333H2v1.334h12v-1.334z" fill="#001018"/></svg>
